image/contact/message-icon.svg

<svg width="70" height="71" viewBox="0 0 70 71" fill="none" xmlns="http://www.w3.org/2000/svg">
<path d="M68.3484 1.16199C67.9592 0.759029 67.4674 0.480035 66.9308 0.357809C66.3943 0.235584 65.8354 0.275208 65.3198 0.472024L1.8615 24.4708C1.31422 24.6867 0.84305 25.0706 0.51056 25.5716C0.178071 26.0726 0 26.6669 0 27.2756C0 27.8844 0.178071 28.4787 0.51056 28.9797C0.84305 29.4807 1.31422 29.8646 1.8615 30.0805L29.5524 41.5999L40.6287 70.3984C40.8368 70.9426 41.1935 71.4115 41.6549 71.7473C42.1162 72.0832 42.6619 72.2712 43.2248 72.2883C43.8077 72.2759 44.3733 72.08 44.847 71.7266C45.3207 71.3732 45.6804 70.8787 45.8785 70.3084L68.9542 4.31183C69.1507 3.78108 69.1981 3.20317 69.0909 2.64548C68.9836 2.08779 68.7261 1.5733 68.3484 1.16199ZM43.2248 60.8889L35.1771 39.89L48.9937 25.5207L44.9266 21.291L30.9946 35.7802L10.9187 27.2906L61.4834 8.30162L43.2248 60.8889Z" fill="#d13b3b"/>
</svg>

<svg width="70" height="71" fill="none" xmlns="http://www.w3.org/2000/svg"><path d="M68.348 1.162a2.853 2.853 0 0 0-1.417-.804 2.78 2.78 0 0 0-1.611.114L1.862 24.471c-.548.216-1.019.6-1.351 1.1A3.084 3.084 0 0 0 0 27.277c0 .608.178 1.203.51 1.704.333.5.804.885 1.352 1.1l27.69 11.52L40.63 70.398a2.983 2.983 0 0 0 1.026 1.35 2.81 2.81 0 0 0 1.57.54 2.811 2.811 0 0 0 1.622-.561 2.99 2.99 0 0 0 1.032-1.419L68.954 4.312c.197-.53.244-1.109.137-1.667a3.043 3.043 0 0 0-.743-1.483ZM43.225 60.889 35.177 39.89l13.817-14.37-4.067-4.229-13.932 14.49-20.076-8.49L61.483 8.3 43.225 60.89Z" fill="#d13b3b"/></svg>
